src/images/dist/icons/tech-icon-4.svg

<svg width="34" height="31" viewBox="0 0 34 31" fill="none" xmlns="http://www.w3.org/2000/svg">
<path d="M31.9961 15H32.9961" stroke="#211E1E" stroke-linecap="round" stroke-linejoin="round"/>
<path d="M0.992188 19H4.64298M32.9922 19H29.0557M4.64298 16.875V19M4.64298 19H16.897M16.897 16.875V19M16.897 19H29.0557M29.0557 16.875V19M22.9604 14.9062V16.875M10.77 14.9062V16.875M4.64298 1C4.47367 1.86458 4.26203 3.59375 4.9287 4.8125C5.62592 6.08712 5.34139 7.40625 4.16679 8.96875C3.56362 9.77111 4.19854 11.875 4.64298 12.4062M4.64298 1L2.54774 3.75M4.64298 1L6.61124 3.75M12.8335 1C12.6641 1.86458 12.4525 3.59375 13.1192 4.8125C13.8164 6.08712 13.5954 7.15625 12.4208 8.71875C11.9446 9.3522 12.0716 11.6562 12.8335 12.4062M12.8335 1L10.7382 3.75M12.8335 1L14.8017 3.75M20.9287 1C20.7594 1.86458 20.5477 3.59375 21.2144 4.8125C22.1033 6.4375 21.3171 7.72661 20.77 8.71875C20.1668 9.8125 20.1668 11.6562 20.9287 12.4062M20.9287 1L18.8335 3.75M20.9287 1L22.897 3.75M29.1192 1C28.9499 1.86458 28.7382 3.59375 29.4049 4.8125C30.2938 6.4375 29.4123 7.72661 28.8652 8.71875C28.262 9.8125 28.3573 11.6562 29.1192 12.4062M29.1192 1L27.0239 3.75M29.1192 1L31.0874 3.75" stroke="#211E1E" stroke-linecap="round" stroke-linejoin="round"/>
<path d="M4.78596 21C5.73396 21.7973 7.0943 23.093 4.45623 26.2027C3.67329 27.3389 3.83811 28.0864 5.28057 30" stroke="#211E1E" stroke-linecap="round" stroke-linejoin="round"/>
<path d="M12.3891 21C12.8631 21.7973 13.5432 23.093 12.2242 26.2027C11.8327 27.3389 11.9151 28.0864 12.6364 30" stroke="#211E1E" stroke-linecap="round" stroke-linejoin="round"/>
<path d="M21.3942 21C21.5262 21.2213 21.6741 21.481 21.7906 21.8073M21.6423 30C20.9188 28.0864 20.8362 27.3389 21.2288 26.2027C21.7616 24.9504 21.9692 23.9924 21.9961 23.2425" stroke="#211E1E" stroke-linecap="round" stroke-linejoin="round"/>
<path d="M28.393 21C28.867 21.7973 29.5472 23.093 28.2281 26.2027C27.8366 27.3389 27.9191 28.0864 28.6403 30" stroke="#211E1E" stroke-linecap="round" stroke-linejoin="round"/>
<line x1="1.49609" y1="14.5" x2="29.4961" y2="14.5" stroke="#211E1E" stroke-linecap="round" stroke-linejoin="round"/>
</svg>

<svg width="34" height="31" fill="none" xmlns="http://www.w3.org/2000/svg"><path d="M31.996 15h1M.992 19h3.651m28.35 0h-3.937M4.643 16.875V19m0 0h12.254m0-2.125V19m0 0h12.159m0-2.125V19m-6.096-4.094v1.969m-12.19-1.969v1.969M4.643 1c-.17.865-.381 2.594.286 3.813.697 1.274.412 2.593-.762 4.156-.603.802.032 2.906.476 3.437M4.643 1L2.548 3.75M4.643 1l1.968 2.75M12.834 1c-.17.865-.381 2.594.285 3.813.697 1.274.476 2.343-.698 3.906-.476.633-.35 2.937.413 3.687m0-11.406l-2.096 2.75M12.834 1l1.968 2.75M20.929 1c-.17.865-.381 2.594.285 3.813.89 1.625.103 2.914-.444 3.906-.603 1.094-.603 2.937.159 3.687m0-11.406l-2.095 2.75M20.928 1l1.968 2.75M29.119 1c-.17.865-.38 2.594.286 3.813.889 1.625.007 2.914-.54 3.906-.603 1.094-.508 2.937.254 3.687M29.12 1l-2.095 2.75M29.119 1l1.968 2.75M4.786 21c.948.797 2.308 2.093-.33 5.203-.783 1.136-.618 1.883.825 3.797m7.109-9c.473.797 1.153 2.093-.166 5.203-.391 1.136-.309 1.883.412 3.797m8.758-9c.132.221.28.481.397.807M21.642 30c-.723-1.914-.806-2.661-.413-3.797.533-1.253.74-2.21.767-2.96M28.393 21c.474.797 1.154 2.093-.165 5.203-.391 1.136-.309 1.883.412 3.797M1.496 14.5h28" stroke="#211E1E" stroke-linecap="round" stroke-linejoin="round"/></svg>
